src/assets/logo.svg

<svg version="1.1" id="Layer_1" xmlns="http://www.w3.org/2000/svg" xmlns:xlink="http://www.w3.org/1999/xlink" x="0px" y="0px"
	 width="100%" viewBox="0 0 352 352" enable-background="new 0 0 352 352" xml:space="preserve">
<path fill="#000000" opacity="1.000000" stroke="none" 
	d="
M189.017792,259.099792 
	C183.706024,263.634460 178.953674,263.336182 173.510071,259.548462 
	C167.515488,255.377396 160.990326,251.944809 154.569763,248.421066 
	C151.741028,246.868607 150.564087,244.932266 150.617844,241.670609 
	C150.782486,231.679245 150.796799,221.680923 150.600067,211.690628 
	C150.535309,208.402267 151.750748,206.575073 154.540253,204.980347 
	C176.078583,192.667282 197.423386,180.009949 219.104355,167.956085 
	C224.786713,164.796890 227.369843,161.347763 226.845428,154.727997 
	C226.242264,147.113754 226.678787,139.414581 226.733475,131.752792 
	C226.746155,129.977173 226.294922,128.092865 227.838135,125.911423 
	C233.336548,127.934555 237.911346,132.040176 243.364441,134.197586 
	C250.796005,137.137726 252.795853,142.049469 252.579041,149.924072 
	C251.974121,171.894455 252.233688,193.893951 252.481247,215.878265 
	C252.534866,220.640411 251.106415,223.352402 246.885452,225.728806 
	C227.590103,236.592072 208.500305,247.820435 189.017792,259.099792 
M205.784912,205.341232 
	C196.864609,210.502579 187.927078,215.634521 179.034607,220.843369 
	C176.394852,222.389648 175.159943,228.470245 177.025345,230.983429 
	C179.299225,234.047028 181.840637,233.361115 184.812271,231.601013 
	C197.397934,224.146484 210.102890,216.893356 222.763672,209.565613 
	C224.639191,208.480133 226.660675,207.522964 226.650665,204.865189 
	C226.637756,201.431183 226.647507,197.997116 226.647507,194.033844 
	C219.069168,197.140945 213.022552,201.581589 205.784912,205.341232 
z"/>
<path fill="#000000" opacity="1.000000" stroke="none" 
	d="
M202.660339,159.713562 
	C181.429642,171.985641 160.548767,184.127411 139.557434,196.075119 
	C136.395370,197.874893 135.152786,199.920349 135.230286,203.566299 
	C135.456268,214.197556 135.310532,224.836716 135.310532,235.058441 
	C133.338272,236.529465 132.209152,235.504181 131.122131,234.878723 
	C125.057487,231.389191 119.076851,227.750641 112.962212,224.352493 
	C110.447693,222.955063 109.578964,221.129684 109.587578,218.309311 
	C109.663452,193.480057 109.672218,168.650269 109.564262,143.821228 
	C109.550919,140.751694 110.651207,138.884674 113.234573,137.402542 
	C134.908279,124.967896 156.552933,112.482460 178.175186,99.958572 
	C180.121979,98.830956 181.770462,98.741310 183.739166,99.896561 
	C191.785034,104.617920 199.865341,109.282570 207.994492,113.858757 
	C210.469086,115.251778 211.429794,117.107010 211.386993,119.934784 
	C211.260956,128.264893 210.832718,136.639664 211.501999,144.917786 
	C212.091034,152.203644 210.065384,157.124710 202.660339,159.713562 
M185.647675,133.892990 
	C184.384079,128.942169 182.197556,127.744949 178.051498,130.091309 
	C166.052078,136.882095 154.103653,143.763596 142.168823,150.667603 
	C134.848190,154.902420 133.391541,159.211639 136.375031,168.023499 
	C152.096695,158.910965 167.735001,149.808487 183.422592,140.791748 
	C186.026733,139.294968 185.613708,136.974472 185.647675,133.892990 
z"/>
</svg>

<?xml version="1.0" encoding="UTF-8" standalone="no"?>
<svg
   version="1.1"
   id="Layer_1"
   x="0px"
   y="0px"
   width="100%"
   viewBox="0 0 352 352"
   enable-background="new 0 0 352 352"
   xml:space="preserve"
   sodipodi:docname="logo.svg"
   inkscape:version="1.4 (86a8ad7, 2024-10-11)"
   xmlns:inkscape="http://www.inkscape.org/namespaces/inkscape"
   xmlns:sodipodi="http://sodipodi.sourceforge.net/DTD/sodipodi-0.dtd"
   xmlns="http://www.w3.org/2000/svg"
   xmlns:svg="http://www.w3.org/2000/svg"><defs
   id="defs2" /><sodipodi:namedview
   id="namedview2"
   pagecolor="#ffffff"
   bordercolor="#000000"
   borderopacity="0.25"
   inkscape:showpageshadow="2"
   inkscape:pageopacity="0.0"
   inkscape:pagecheckerboard="0"
   inkscape:deskcolor="#d1d1d1"
   inkscape:zoom="0.55326705"
   inkscape:cx="359.68164"
   inkscape:cy="-212.37484"
   inkscape:window-width="1728"
   inkscape:window-height="1001"
   inkscape:window-x="1721"
   inkscape:window-y="-7"
   inkscape:window-maximized="1"
   inkscape:current-layer="Layer_1" />

<g
   id="g2"
   transform="matrix(2.1667021,0,0,1.8988832,-216.34498,-167.23816)"><path
     fill="#000000"
     opacity="1"
     stroke="none"
     d="m 189.01779,259.09979 c -5.31177,4.53467 -10.06412,4.23639 -15.50772,0.44867 -5.99458,-4.17106 -12.51974,-7.60365 -18.94031,-11.12739 -2.82873,-1.55246 -4.00567,-3.4888 -3.95192,-6.75046 0.16465,-9.99137 0.17896,-19.98969 -0.0178,-29.97998 -0.0648,-3.28836 1.15068,-5.11556 3.94018,-6.71028 21.53833,-12.31307 42.88314,-24.9704 64.5641,-37.02427 5.68236,-3.15919 8.26549,-6.60832 7.74108,-13.22808 -0.60317,-7.61425 -0.16664,-15.31342 -0.11196,-22.97521 0.0127,-1.77562 -0.43855,-3.65993 1.10466,-5.84137 5.49842,2.02314 10.07322,6.12876 15.52631,8.28617 7.43156,2.94014 9.43141,7.85188 9.2146,15.72648 -0.60492,21.97038 -0.34535,43.96988 -0.0978,65.95419 0.0536,4.76215 -1.37484,7.47414 -5.5958,9.85055 -19.29535,10.86326 -38.38515,22.09162 -57.86766,33.37098 m 16.76712,-53.75856 c -8.9203,5.16135 -17.85783,10.29329 -26.7503,15.50214 -2.63976,1.54628 -3.87467,7.62687 -2.00927,10.14006 2.27388,3.0636 4.8153,2.37768 7.78693,0.61758 12.58566,-7.45453 25.29062,-14.70765 37.9514,-22.0354 1.87552,-1.08548 3.897,-2.04265 3.88699,-4.70042 -0.0129,-3.43401 -0.003,-6.86807 -0.003,-10.83135 -7.57834,3.1071 -13.62496,7.54775 -20.8626,11.30739 z"
     id="path1" /><path
     fill="#000000"
     opacity="1"
     stroke="none"
     d="m 202.66034,159.71356 c -21.2307,12.27208 -42.11157,24.41385 -63.10291,36.36156 -3.16206,1.79977 -4.40464,3.84523 -4.32714,7.49118 0.22598,10.63126 0.0802,21.27042 0.0802,31.49214 -1.97226,1.47102 -3.10138,0.44574 -4.1884,-0.17972 -6.06464,-3.48953 -12.04528,-7.12808 -18.15992,-10.52623 -2.51452,-1.39743 -3.38325,-3.22281 -3.37463,-6.04318 0.0759,-24.82925 0.0846,-49.65904 -0.0233,-74.48808 -0.0133,-3.06954 1.08695,-4.93656 3.67031,-6.41869 21.67371,-12.43464 43.31836,-24.92008 64.94062,-37.443968 1.94679,-1.127616 3.59527,-1.217262 5.56398,-0.06201 8.04586,4.721358 16.12617,9.386008 24.25532,13.962198 2.4746,1.39302 3.4353,3.24825 3.3925,6.07602 -0.12603,8.33011 -0.55427,16.70488 0.11501,24.98301 0.58903,7.28585 -1.43662,12.20692 -8.84166,14.79577 m -17.01267,-25.82057 c -1.26359,-4.95082 -3.45011,-6.14804 -7.59617,-3.80168 -11.99942,6.79078 -23.94785,13.67229 -35.88268,20.57629 -7.32063,4.23482 -8.77728,8.54404 -5.79379,17.3559 15.72166,-9.11254 31.35997,-18.21501 47.04756,-27.23175 2.60414,-1.49678 2.19112,-3.81728 2.22508,-6.89876 z"
     id="path2" /></g>
</svg>
